packages/match-logos/color/svg/booking.svg

<svg fill="none" height="30" viewBox="0 0 177 30" width="177" xmlns="http://www.w3.org/2000/svg"><path d="m155.923 9.02347c3.25-3.42852 7.862-2.46783 9.166.43892.305-.03349.397-.31552.566-.49885 1.849-1.97426 4.121-2.53305 6.67-1.84734 2.029.54468 2.946 2.11529 3.249 4.0807.11.7843.163 1.5755.158 2.3674.018 2.9667 0 5.9333.02 8.8983 0 .5764-.162.7474-.739.7615-3.328.0758-3.758-.3279-3.758-3.6683 0-2.0271.023-4.0543-.01-6.0797-.016-.9254.042-1.939-1.058-2.3973-.92-.3825-2.188.0159-2.997.9519-.927 1.0576-1.302 2.3462-1.311 3.737-.014 2.2316-.023 4.4632.009 6.6984 0 .5764-.157.7791-.739.758-.998-.037-1.999-.0459-2.997 0-.648.0335-.779-.2292-.774-.8162.025-2.7604.013-5.5209.009-8.2848 0-.3808-.017-.7633-.051-1.1423-.072-.8302-.326-1.5741-1.181-1.9002-.911-.3526-1.749-.1058-2.45.5288-1.162 1.0453-1.636 2.4326-1.685 3.9362-.074 2.2598-.071 4.5214-.05 6.7812 0 .6699-.141.9519-.87.9026-.966-.0653-1.939-.0335-2.907 0-.457.0105-.608-.1446-.608-.6064.014-4.9357.014-9.8713 0-14.807 0-.45479.128-.64165.597-.60463.409.03349.822 0 1.234 0 1.491.03349 1.959.36137 2.507 1.8121z" fill="#03aeee"/><g fill="#20407a"><path d="m104.826 21.7628c-3.671 2.3479-8.6265.8355-10.2464-3.143-1.1176-2.7428-1.1035-5.4944.2079-8.1791.9184-1.88435 2.452-3.05658 4.4915-3.49373 2.195-.47242 4.261-.17627 6.062 1.28857.827-.99595 2.708-1.53005 3.908-1.13696.386.12692.256.41952.257.6522.013 1.90905 0 3.81812 0 5.72712v8.1086c0 4.2306-2.311 6.9628-6.492 7.6644-2.508.4213-4.8984.0088-7.2094-1.0136-.5394-.238-.7262-.4883-.4265-1.0577.245-.4636.3825-.9835.5923-1.4665.4689-1.0771.9747-1.3397 2.0906-.9713 1.2223.4268 2.521.589 3.811.4759 2.032-.1992 3.185-1.5635 2.954-3.4549zm-6.2997-7.051c-.024.8824.1852 1.7556.6064 2.5313.2944.5276.737.9572 1.2733 1.2358.536.2785 1.142.3937 1.743.3313 1.41-.164 2.221-.8497 2.616-2.2228.289-1.0048.273-2.0272.132-3.0478-.24-1.7381-1.276-2.6441-3.104-2.7322-1.514-.0776-2.6444.7826-3.0781 2.3409-.1352.5117-.1987 1.0397-.1886 1.5688z"/><path d="m12.9015 11.4049c2.9402 2.0624 3.8516 4.4668 2.8204 7.43-.8691 2.4854-2.8293 3.6312-5.2742 4.0966-1.88962.3525-3.8057.1251-5.70945.1762-1.14402.0282-2.29155-.0158-3.43381.0159-.468885.0141-.585236-.1428-.583473-.594.012339-6.3988.000014-12.79751.014116-19.19624 0-1.32382.951867-2.2651 2.280967-2.27921 1.96722-.01939 3.93266 0 5.89987 0 .82338.00563 1.63988.15044 2.41498.42834 1.9901.70509 3.395 1.9919 3.7775 4.13009.3861 2.16817-.1533 4.07368-1.909 5.52792-.097.0688-.178.1534-.2979.2644zm-7.86007 5.4381h-.05818c0 .6169.02115 1.2339 0 1.8491-.01939.4442.11459.6363.58877.6258 1.14578-.0247 2.29155.0264 3.43557-.0194 1.60761-.0617 2.61411-1.1617 2.64411-2.8098.037-1.7628-.9378-2.9456-2.58416-3.0637-.90605-.0652-1.81914-.0458-2.72871-.0299-.7474.0123-1.23393.3966-1.28681 1.1651-.05288.7686-.01059 1.5213-.01059 2.2828zm0-9.03933h-.05112c0 .52882.0141 1.05765 0 1.58647-.01234.35254.07579.54468.48122.52882 1.08232-.02292 2.1682.03171 3.24875-.03704 1.27446-.08108 2.11532-1.12109 2.15052-2.55243.0406-1.38728-.7051-2.37088-1.99012-2.57712-.87079-.14102-1.75219-.0899-2.6265-.0423-.7051.03878-1.14222.46183-1.19863 1.16516-.0617.64164-.02117 1.28681-.02117 1.92844z"/><path d="m68.5758 7.1479c-1.285 1.91257-2.4519 3.6612-3.633 5.401-.4442.654-1.2233 1.2569-1.2885 1.939-.0582.6029.6927 1.2639 1.033 1.9285 1.0417 2.0359 2.2333 3.9855 3.4179 5.9386.1445.2398.3772.4478.3631.8461-1.4648-.0264-2.9191.0864-4.3733-.0793-.9237-.104-1.4314-.7315-1.8333-1.4772-.7632-1.4102-1.516-2.8415-2.2722-4.264-.0729-.1596-.1559-.3145-.2485-.4636-.3067-.4319-.7827-.4142-1.1987-.3208s-.1939.4971-.1974.7544c-.0176 1.7011-.03 3.4056 0 5.1119.0106.5588-.1199.7845-.7209.7598-1.1123-.0423-2.2299-.03-3.3492 0-.4813.0123-.6611-.1181-.6593-.6381.0164-6.9558.0164-13.91211 0-20.86904 0-.57289.1992-.70511.7051-.66985.6434.03702 1.2921.00001 1.939.01235 1.3485.03173 1.9795.62928 2.0571 1.99188.0388.67336.0088 1.35025.0088 2.02538 0 2.14172-.0105 4.28522.0124 6.42698 0 .3402-.2539.8813.2062.9959.5835.141 1.2339.1181 1.6394-.5288.8196-1.285 1.7063-2.5313 2.4678-3.84807.4371-.75445.9413-1.04706 1.8191-.98889 1.2974.07756 2.5842.01586 4.1054.01586z"/><path d="m81.6024 8.94592c1.6693-1.72925 3.5572-2.32506 5.7289-2.09943 2.8997.30143 4.7065 1.96368 4.8352 4.86161.1621 3.7018.0687 7.4035.1005 11.1052 0 .3367-.1429.4002-.4178.3949-.7051-.0141-1.4102.0229-2.1153-.0405-1.4578-.1323-2.0959-.825-2.1065-2.2916-.0194-2.3497 0-4.6995-.0106-7.0509 0-.9396.0565-1.9849-.9412-2.4855-.9978-.5006-2.0836-.2503-3.0179.3314-1.4754.9166-1.9143 2.3815-1.9284 4.0102-.0194 2.2334-.03 4.4668.0106 6.6984.0106.6575-.1658.8814-.8338.8391-1.0577-.0564-2.1153-.0317-3.173 0-.4688.0106-.6751-.0952-.6715-.6276.0176-4.9356.0176-9.8713 0-14.80694 0-.51824.1762-.67513.6592-.63811.379.03173.7633 0 1.1458 0 1.2551-.00176 2.3762.21331 2.7358 1.79977z"/><path d="m43.6684 6.86059c4.9356 0 8.3853 3.41971 8.38 8.32541 0 4.8017-3.5131 8.2567-8.3853 8.262-4.8722.0052-8.3977-3.4903-8.3906-8.3572 0-4.8158 3.4902-8.23021 8.3959-8.23021zm-3.841 8.25671c0 2.0148.8814 3.5254 2.4132 4.1247 2.8062 1.0894 5.4504-1.0241 5.2988-4.2517-.0846-1.7927-.7281-3.2875-2.5155-3.9838-2.7005-1.05054-5.1895.9396-5.1965 4.1108z"/><path d="m25.7659 6.86059c4.8792 0 8.3624 3.45141 8.3677 8.27071.0052 4.8194-3.5467 8.3237-8.4471 8.3131-4.844-.0106-8.3695-3.5113-8.3659-8.3025.0035-4.8616 3.4973-8.29542 8.4453-8.28131zm-3.8939 8.30251c0 1.315.3631 2.4837 1.3537 3.4056 1.5865 1.4666 4.2606 1.2039 5.5227-.5394 1.137-1.5724 1.144-4.1372.0141-5.7254-.4663-.6502-1.129-1.1336-1.8905-1.3791-.7615-.2456-1.5817-.2405-2.3401.0148-1.6516.5217-2.6564 2.1205-2.6564 4.2235z"/></g><path d="m141.587 6.86235c4.888 0 8.403 3.44265 8.413 8.23725.011 4.8246-3.555 8.3554-8.428 8.3448-4.905-.0123-8.404-3.4937-8.395-8.3571.007-4.807 3.504-8.22672 8.41-8.22495zm3.844 8.28485c0-.2062.014-.4125 0-.617-.176-1.9866-1.572-3.5501-3.36-3.751-1.877-.2098-3.465.8073-4.084 2.6282-.409 1.1753-.388 2.4577.06 3.6189.68 1.8191 2.366 2.7569 4.275 2.4079s3.121-1.9954 3.109-4.2852z" fill="#03aeee"/><path d="m126.08 6.8606c1.526 0 2.979.29086 4.29 1.09643 1.342.8232 2.137 3.14997 1.587 4.51617-.108.2679-.304.2309-.497.2326-.617 0-1.234-.0105-1.851 0-.767.0194-1.329-.319-1.578-1.0259-.238-.6786-.767-.8426-1.356-.9342-3.023-.4777-5.401 2.1646-4.798 5.3199.48 2.5066 2.889 4.0173 5.447 3.4144 1.207-.277 2.312-.8878 3.189-1.7627.307-.3032.478-.3367.705.0775.428.7674.883 1.5201 1.364 2.2581.244.372.177.6328-.125.9131-2.644 2.4079-5.725 3.1535-9.141 2.2122-3.194-.8813-5.236-3.0213-5.805-6.2964-1.044-6.055 3.27-10.0829 8.569-10.0212z" fill="#03aeee"/><path d="m69.8501 15.1842c0-2.4325.0176-4.8651-.0123-7.29593-.0088-.56936.1357-.79852.7262-.74916.728.06169 1.4666.01056 2.1911.10046.9765.11987 1.5071.68041 1.6676 1.64639.0511.31824.0758.64016.074.96247 0 4.16357-.0124 8.32717.0193 12.48897 0 .6945-.1762.9237-.8813.8814-.9658-.0547-1.9339-.0547-2.8997 0-.6434.0335-.862-.1375-.8514-.8197.0423-2.4044.0176-4.8087.0176-7.2131z" fill="#20407a"/><path d="m71.9743.338454c.3529-.010798.7044.04881 1.034.175349.3296.126538.6307.317478.8857.561657.255.24418.4588.53671.5996.86052.1407.3238.2155.67239.22 1.02543.0015.71163-.2767 1.39537-.7746 1.90382-.4979.50846-1.1756.80091-1.8871.81432-.3507.00509-.699-.05895-1.0249-.18845-.326-.1295-.6233-.32192-.8749-.56631-.2515-.24438-.4525-.53592-.5914-.85797-.1389-.32206-.213-.66834-.2181-1.01904s.0589-.69896.1884-1.02491c.1295-.32596.3219-.62323.5663-.87481.2444-.251584.536-.452568.858-.59148.3221-.138912.6683-.213033 1.019-.218126z" fill="#20407a"/><path d="m113.989 23.3826c-.359.0118-.716-.0483-1.052-.1768-.335-.1285-.642-.3227-.901-.5713s-.466-.5466-.608-.8763c-.142-.3298-.217-.6846-.221-1.0438-.003-.3591.066-.7153.202-1.0475.137-.3322.338-.6337.593-.8869.255-.2531.558-.4528.891-.5872s.689-.2008 1.049-.1953c1.457-.0106 2.727 1.2339 2.728 2.6723-.005.7124-.288 1.3945-.789 1.9012s-1.18.7979-1.892.8116z" fill="#03aeee"/></svg>

<svg width="177" height="30" viewBox="0 0 177 30" fill="none" xmlns="http://www.w3.org/2000/svg">
<path d="M155.923 9.02347C159.173 5.59495 163.785 6.55564 165.089 9.46239C165.394 9.4289 165.486 9.14687 165.655 8.96354C167.504 6.98928 169.776 6.43049 172.325 7.1162C174.354 7.66088 175.271 9.23149 175.574 11.1969C175.684 11.9812 175.737 12.7724 175.732 13.5643C175.75 16.531 175.732 19.4976 175.752 22.4626C175.752 23.039 175.59 23.21 175.013 23.2241C171.685 23.2999 171.255 22.8962 171.255 19.5558C171.255 17.5287 171.278 15.5015 171.245 13.4761C171.229 12.5507 171.287 11.5371 170.187 11.0788C169.267 10.6963 167.999 11.0947 167.19 12.0307C166.263 13.0883 165.888 14.3769 165.879 15.7677C165.865 17.9993 165.856 20.2309 165.888 22.4661C165.888 23.0425 165.731 23.2452 165.149 23.2241C164.151 23.1871 163.15 23.1782 162.152 23.2241C161.504 23.2576 161.373 22.9949 161.378 22.4079C161.403 19.6475 161.391 16.887 161.387 14.1231C161.387 13.7423 161.37 13.3598 161.336 12.9808C161.264 12.1506 161.01 11.4067 160.155 11.0806C159.244 10.728 158.406 10.9748 157.705 11.6094C156.543 12.6547 156.069 14.042 156.02 15.5456C155.946 17.8054 155.949 20.067 155.97 22.3268C155.97 22.9967 155.829 23.2787 155.1 23.2294C154.134 23.1641 153.161 23.1959 152.193 23.2294C151.736 23.2399 151.585 23.0848 151.585 22.623C151.599 17.6873 151.599 12.7517 151.585 7.816C151.585 7.36121 151.713 7.17435 152.182 7.21137C152.591 7.24486 153.004 7.21137 153.416 7.21137C154.907 7.24486 155.375 7.57274 155.923 9.02347Z" fill="#03AEEE"/>
<path d="M104.826 21.7628C101.155 24.1107 96.1995 22.5983 94.5796 18.6198C93.462 15.877 93.4761 13.1254 94.7875 10.4407C95.7059 8.55635 97.2395 7.38412 99.279 6.94697C101.474 6.47455 103.54 6.7707 105.341 8.23554C106.168 7.23959 108.049 6.70549 109.249 7.09858C109.635 7.2255 109.505 7.5181 109.506 7.75078C109.519 9.65983 109.506 11.5689 109.506 13.4779C109.506 16.1808 109.506 18.8836 109.506 21.5865C109.506 25.8171 107.195 28.5493 103.014 29.2509C100.506 29.6722 98.1156 29.2597 95.8046 28.2373C95.2652 27.9993 95.0784 27.749 95.3781 27.1796C95.6231 26.716 95.7606 26.1961 95.9704 25.7131C96.4393 24.636 96.9451 24.3734 98.061 24.7418C99.2833 25.1686 100.582 25.3308 101.872 25.2177C103.904 25.0185 105.057 23.6542 104.826 21.7628ZM98.5263 14.7118C98.5023 15.5942 98.7115 16.4674 99.1327 17.2431C99.4271 17.7707 99.8697 18.2003 100.406 18.4789C100.942 18.7574 101.548 18.8726 102.149 18.8102C103.559 18.6462 104.37 17.9605 104.765 16.5874C105.054 15.5826 105.038 14.5602 104.897 13.5396C104.657 11.8015 103.621 10.8955 101.793 10.8074C100.279 10.7298 99.1486 11.59 98.7149 13.1483C98.5797 13.66 98.5162 14.188 98.5263 14.7171V14.7118Z" fill="#20407A"/>
<path d="M12.9015 11.4049C15.8417 13.4673 16.7531 15.8717 15.7219 18.8349C14.8528 21.3203 12.8926 22.4661 10.4477 22.9315C8.55808 23.284 6.642 23.0566 4.73825 23.1077C3.59423 23.1359 2.4467 23.0919 1.30444 23.1236C0.835555 23.1377 0.719204 22.9808 0.720967 22.5296C0.733306 16.1308 0.720981 9.73209 0.735083 3.33336C0.735083 2.00954 1.68695 1.06826 3.01605 1.05415C4.98327 1.03476 6.94871 1.05415 8.91592 1.05415C9.7393 1.05978 10.5558 1.20459 11.3309 1.48249C13.321 2.18758 14.7259 3.47439 15.1084 5.61258C15.4945 7.78075 14.9551 9.68626 13.1994 11.1405C13.1024 11.2093 13.0214 11.2939 12.9015 11.4049ZM5.04143 16.843H4.98325C4.98325 17.4599 5.0044 18.0769 4.98325 18.6921C4.96386 19.1363 5.09784 19.3284 5.57202 19.3179C6.7178 19.2932 7.86357 19.3443 9.00759 19.2985C10.6152 19.2368 11.6217 18.1368 11.6517 16.4887C11.6887 14.7259 10.7139 13.5431 9.06754 13.425C8.16149 13.3598 7.2484 13.3792 6.33883 13.3951C5.59143 13.4074 5.1049 13.7917 5.05202 14.5602C4.99914 15.3288 5.04143 16.0815 5.04143 16.843ZM5.04143 7.80367H4.99031C4.99031 8.33249 5.00441 8.86132 4.99031 9.39014C4.97797 9.74268 5.0661 9.93482 5.47153 9.91896C6.55385 9.89604 7.63973 9.95067 8.72028 9.88192C9.99474 9.80084 10.8356 8.76083 10.8708 7.32949C10.9114 5.94221 10.1657 4.95861 8.88068 4.75237C8.00989 4.61135 7.12849 4.66247 6.25418 4.71007C5.54908 4.74885 5.11196 5.1719 5.05555 5.87523C4.99385 6.51687 5.03438 7.16204 5.03438 7.80367H5.04143Z" fill="#20407A"/>
<path d="M68.5758 7.1479C67.2908 9.06047 66.1239 10.8091 64.9428 12.5489C64.4986 13.2029 63.7195 13.8058 63.6543 14.4879C63.5961 15.0908 64.347 15.7518 64.6873 16.4164C65.729 18.4523 66.9206 20.4019 68.1052 22.355C68.2497 22.5948 68.4824 22.8028 68.4683 23.2011C67.0035 23.1747 65.5492 23.2875 64.095 23.1218C63.1713 23.0178 62.6636 22.3903 62.2617 21.6446C61.4985 20.2344 60.7457 18.8031 59.9895 17.3806C59.9166 17.221 59.8336 17.0661 59.741 16.917C59.4343 16.4851 58.9583 16.5028 58.5423 16.5962C58.1263 16.6896 58.3484 17.0933 58.3449 17.3506C58.3273 19.0517 58.3149 20.7562 58.3449 22.4625C58.3555 23.0213 58.225 23.247 57.624 23.2223C56.5117 23.18 55.3941 23.1923 54.2748 23.2223C53.7935 23.2346 53.6137 23.1042 53.6155 22.5842C53.6319 15.6284 53.6319 8.67209 53.6155 1.71516C53.6155 1.14227 53.8147 1.01005 54.3206 1.04531C54.964 1.08233 55.6127 1.04532 56.2596 1.05766C57.6081 1.08939 58.2391 1.68694 58.3167 3.04954C58.3555 3.7229 58.3255 4.39979 58.3255 5.07492C58.3255 7.21664 58.315 9.36014 58.3379 11.5019C58.3379 11.8421 58.084 12.3832 58.5441 12.4978C59.1276 12.6388 59.778 12.6159 60.1835 11.969C61.0031 10.684 61.8898 9.4377 62.6513 8.12093C63.0884 7.36648 63.5926 7.07387 64.4704 7.13204C65.7678 7.2096 67.0546 7.1479 68.5758 7.1479Z" fill="#20407A"/>
<path d="M81.6024 8.94592C83.2717 7.21667 85.1596 6.62086 87.3313 6.84649C90.231 7.14792 92.0378 8.81017 92.1665 11.7081C92.3286 15.4099 92.2352 19.1116 92.267 22.8133C92.267 23.15 92.1241 23.2135 91.8492 23.2082C91.1441 23.1941 90.439 23.2311 89.7339 23.1677C88.2761 23.0354 87.638 22.3427 87.6274 20.8761C87.608 18.5264 87.6274 16.1766 87.6168 13.8252C87.6168 12.8856 87.6733 11.8403 86.6756 11.3397C85.6778 10.8391 84.592 11.0894 83.6577 11.6711C82.1823 12.5877 81.7434 14.0526 81.7293 15.6813C81.7099 17.9147 81.6993 20.1481 81.7399 22.3797C81.7505 23.0372 81.5741 23.2611 80.9061 23.2188C79.8484 23.1624 78.7908 23.1871 77.7331 23.2188C77.2643 23.2294 77.058 23.1236 77.0616 22.5912C77.0792 17.6556 77.0792 12.7199 77.0616 7.78426C77.0616 7.26602 77.2378 7.10913 77.7208 7.14615C78.0998 7.17788 78.4841 7.14615 78.8666 7.14615C80.1217 7.14439 81.2428 7.35946 81.6024 8.94592Z" fill="#20407A"/>
<path d="M43.6684 6.86059C48.604 6.86059 52.0537 10.2803 52.0484 15.186C52.0484 19.9877 48.5353 23.4427 43.6631 23.448C38.7909 23.4532 35.2654 19.9577 35.2725 15.0908C35.2725 10.275 38.7627 6.86059 43.6684 6.86059ZM39.8274 15.1173C39.8274 17.1321 40.7088 18.6427 42.2406 19.242C45.0468 20.3314 47.691 18.2179 47.5394 14.9903C47.4548 13.1976 46.8113 11.7028 45.0239 11.0065C42.3234 9.95596 39.8344 11.9461 39.8274 15.1173Z" fill="#20407A"/>
<path d="M25.7659 6.86059C30.6451 6.86059 34.1283 10.312 34.1336 15.1313C34.1388 19.9507 30.5869 23.455 25.6865 23.4444C20.8425 23.4338 17.317 19.9331 17.3206 15.1419C17.3241 10.2803 20.8179 6.84648 25.7659 6.86059ZM21.872 15.1631C21.872 16.4781 22.2351 17.6468 23.2257 18.5687C24.8122 20.0353 27.4863 19.7726 28.7484 18.0293C29.8854 16.4569 29.8924 13.8921 28.7625 12.3039C28.2962 11.6537 27.6335 11.1703 26.872 10.9248C26.1105 10.6792 25.2903 10.6843 24.5319 10.9396C22.8803 11.4613 21.8755 13.0601 21.8755 15.1631H21.872Z" fill="#20407A"/>
<path d="M141.587 6.86235C146.475 6.86235 149.99 10.305 150 15.0996C150.011 19.9242 146.445 23.455 141.572 23.4444C136.667 23.4321 133.168 19.9507 133.177 15.0873C133.184 10.2803 136.681 6.86058 141.587 6.86235ZM145.431 15.1472C145.431 14.941 145.445 14.7347 145.431 14.5302C145.255 12.5436 143.859 10.9801 142.071 10.7792C140.194 10.5694 138.606 11.5865 137.987 13.4074C137.578 14.5827 137.599 15.8651 138.047 17.0263C138.727 18.8454 140.413 19.7832 142.322 19.4342C144.231 19.0852 145.443 17.4388 145.431 15.149V15.1472Z" fill="#03AEEE"/>
<path d="M126.08 6.8606C127.606 6.8606 129.059 7.15146 130.37 7.95703C131.712 8.78023 132.507 11.107 131.957 12.4732C131.849 12.7411 131.653 12.7041 131.46 12.7058C130.843 12.7058 130.226 12.6953 129.609 12.7058C128.842 12.7252 128.28 12.3868 128.031 11.6799C127.793 11.0013 127.264 10.8373 126.675 10.7457C123.652 10.268 121.274 12.9103 121.877 16.0656C122.357 18.5722 124.766 20.0829 127.324 19.48C128.531 19.203 129.636 18.5922 130.513 17.7173C130.82 17.4141 130.991 17.3806 131.218 17.7948C131.646 18.5622 132.101 19.3149 132.582 20.0529C132.826 20.4249 132.759 20.6857 132.457 20.966C129.813 23.3739 126.732 24.1195 123.316 23.1782C120.122 22.2969 118.08 20.1569 117.511 16.8818C116.467 10.8268 120.781 6.7989 126.08 6.8606Z" fill="#03AEEE"/>
<path d="M69.8501 15.1842C69.8501 12.7517 69.8677 10.3191 69.8378 7.88827C69.829 7.31891 69.9735 7.08975 70.564 7.13911C71.292 7.2008 72.0306 7.14967 72.7551 7.23957C73.7316 7.35944 74.2622 7.91998 74.4227 8.88596C74.4738 9.2042 74.4985 9.52612 74.4967 9.84843C74.4967 14.012 74.4843 18.1756 74.516 22.3374C74.516 23.0319 74.3398 23.2611 73.6347 23.2188C72.6689 23.1641 71.7008 23.1641 70.735 23.2188C70.0916 23.2523 69.873 23.0813 69.8836 22.3991C69.9259 19.9947 69.9012 17.5904 69.9012 15.186L69.8501 15.1842Z" fill="#20407A"/>
<path d="M71.9743 0.338454C72.3272 0.327656 72.6787 0.387264 73.0083 0.513803C73.3379 0.640341 73.639 0.831281 73.894 1.07546C74.149 1.31964 74.3528 1.61217 74.4936 1.93598C74.6343 2.25978 74.7091 2.60837 74.7136 2.96141C74.7151 3.67304 74.4369 4.35678 73.939 4.86523C73.4411 5.37369 72.7634 5.66614 72.0519 5.67955C71.7012 5.68464 71.3529 5.6206 71.027 5.4911C70.701 5.3616 70.4037 5.16918 70.1521 4.92479C69.9006 4.68041 69.6996 4.38887 69.5607 4.06682C69.4218 3.74476 69.3477 3.39848 69.3426 3.04778C69.3375 2.69708 69.4015 2.34882 69.531 2.02287C69.6605 1.69691 69.8529 1.39964 70.0973 1.14806C70.3417 0.896476 70.6333 0.695492 70.9553 0.55658C71.2774 0.417668 71.6236 0.343547 71.9743 0.338454Z" fill="#20407A"/>
<path d="M113.989 23.3826C113.63 23.3944 113.273 23.3343 112.937 23.2058C112.602 23.0773 112.295 22.8831 112.036 22.6345C111.777 22.3859 111.57 22.0879 111.428 21.7582C111.286 21.4284 111.211 21.0736 111.207 20.7144C111.204 20.3553 111.273 19.9991 111.409 19.6669C111.546 19.3347 111.747 19.0332 112.002 18.78C112.257 18.5269 112.56 18.3272 112.893 18.1928C113.226 18.0584 113.582 17.992 113.942 17.9975C115.399 17.9869 116.669 19.2314 116.67 20.6698C116.665 21.3822 116.382 22.0643 115.881 22.571C115.38 23.0777 114.701 23.3689 113.989 23.3826Z" fill="#03AEEE"/>
</svg>
